barni/images/branch.svg

<svg width="234" height="45" viewBox="0 0 234 45" fill="none" xmlns="http://www.w3.org/2000/svg">
<path fill-rule="evenodd" clip-rule="evenodd" d="M24.6404 3.65086C24.9214 3.8378 25.2025 3.93126 25.3899 4.1182C24.7341 3.27699 24.2656 2.71619 24.0782 2.52926C24.3593 2.90313 24.453 3.27699 24.6404 3.65086ZM10.7743 0.0991211H28.7627C30.8239 1.40766 32.2292 2.52926 28.2943 1.31419C27.8258 1.12726 26.7015 0.192588 26.3268 0.753389C26.6078 1.40766 26.9826 1.78152 27.3574 2.24886C28.0132 3.09006 28.5753 3.93126 29.2311 4.77246C29.6996 5.42673 29.9807 6.081 30.3554 6.82873C34.7588 9.16541 39.0685 11.0347 43.3783 12.6237C41.4108 10.0066 40.1928 8.51114 46.5637 13.6518C44.4088 10.7543 41.1297 2.99659 45.1584 8.51114C45.8142 9.35234 46.2826 10.5674 46.8448 11.689C46.9385 11.8759 47.0321 12.0629 47.1258 12.0629C44.3151 -1.67675 48.2501 9.91314 48.3438 12.2498C47.8753 3.18353 49.8428 0.566455 49.4681 13.1845C49.5618 12.3433 52.1851 2.52926 52.0914 6.3614C52.0914 6.82873 52.0914 7.2026 51.9977 7.66994C51.9977 8.41767 51.904 8.97847 51.8103 9.63274C51.6229 10.3805 51.5292 11.1282 51.3419 11.8759C51.2482 12.2498 51.0608 12.7171 51.0608 13.1845C51.3419 13.3714 51.8103 12.2498 51.9977 11.9694C54.9957 8.0438 51.9977 13.3714 51.2482 14.9604C52.0914 14.3995 52.9346 13.8387 53.6841 13.1845C53.7778 13.091 53.9652 12.9975 54.0589 13.2779C54.0589 13.2779 52.0914 15.0538 51.904 15.1473C53.0283 15.4277 54.2462 15.7081 55.3705 15.895C66.8006 18.0448 78.137 17.3905 89.2861 14.0257L88.1618 13.1845C87.0375 12.2498 89.8482 12.2498 91.1599 13.3714L91.3473 13.2779C90.9725 9.91314 89.005 4.02473 92.7526 13.091C92.0968 10.1001 91.9094 3.27699 93.1274 9.07194C93.3147 10.0066 93.4084 11.0347 93.4084 12.0629C93.4084 12.2498 93.4084 12.3433 93.5021 12.4367C95.0012 3.09006 94.8138 9.72621 94.439 12.4367H94.5327C96.2191 7.7634 97.6245 7.01567 95.8444 11.9694C96.5002 11.689 97.2497 11.4086 97.9055 11.1282C98.1866 10.9413 98.374 10.8478 98.374 10.9413C98.5613 10.8478 98.8424 10.7543 99.0298 10.6609L99.2172 10.5674C112.521 5.89407 127.043 4.30513 142.876 5.61367C148.779 6.081 154.869 6.6418 161.146 7.38954C160.396 6.45487 163.957 6.45487 165.456 7.95034H165.643C164.8 3.27699 162.083 -4.94809 167.236 7.29607C166.767 5.33326 166.486 1.96846 166.58 0.192588H167.423C167.517 0.659922 167.704 1.22072 167.798 1.87499C168.079 3.09006 168.079 4.49206 168.173 5.89407C168.173 6.081 168.173 6.3614 168.266 6.45487C168.922 2.62273 169.297 0.846856 169.578 0.286055H169.859C170.046 1.31419 169.765 6.26793 169.297 7.57647C171.92 -0.555147 174.544 -1.39635 170.14 8.885H170.234C171.452 7.29607 175.761 2.34233 174.544 5.2398C174.356 5.61367 174.262 5.98753 174.075 6.26793C173.794 6.82873 173.607 7.29607 173.232 7.7634C172.857 8.23074 172.576 8.69807 172.201 9.16541C179.415 10.5674 186.817 12.5302 194.406 15.5212C202.931 18.886 209.864 21.69 216.423 17.8578C222.044 14.5865 225.885 8.69807 230.101 0.286055H233.38C226.073 16.1754 221.763 24.494 207.335 25.8025H207.241C206.679 25.8025 206.117 25.896 205.555 25.9894C206.304 26.4568 208.928 27.9522 206.585 27.2045C206.398 27.111 205.929 26.8306 205.836 27.0176C205.929 27.298 206.117 27.3914 206.211 27.5784C206.492 27.8588 206.679 28.2326 206.96 28.513C207.147 28.7934 207.241 29.0738 207.428 29.4477C207.522 29.6346 207.616 29.8216 207.71 30.102C208.553 32.0648 205.18 28.0457 204.993 27.6718C207.803 34.1211 206.211 33.6537 204.618 28.7C205.086 30.0085 205.367 37.6728 204.056 29.3542C203.962 29.4477 203.962 29.5412 203.962 29.6346C203.868 30.4758 203.868 31.317 203.681 32.0648C202.65 36.7381 202.838 31.2236 203.306 28.7934C200.214 36.2708 201.901 31.0366 202.369 28.2326C201.432 29.3542 198.809 29.3542 199.84 28.6065C200.589 28.0457 201.339 27.4849 202.088 26.9241C201.62 26.8306 198.903 26.4568 199.465 26.2698C200.027 25.9894 200.402 25.709 201.058 25.709H201.245C198.341 25.3352 195.343 24.5874 192.251 23.3724C179.509 16.8297 156.274 11.8759 142.595 10.6609C140.066 10.4739 137.536 10.287 135.1 10.287C135.194 10.3805 135.288 10.4739 135.381 10.5674C135.85 11.1282 136.318 11.7825 136.693 12.4367C137.068 12.9975 137.349 13.5583 137.63 14.2126C137.817 14.5865 138.005 15.0538 138.192 15.4277C139.785 19.1664 133.414 11.5021 132.945 10.7543C138.286 22.9985 135.194 22.1573 132.196 12.7171C133.039 15.2408 133.601 29.915 131.072 13.9322C130.978 14.0257 130.978 14.3061 130.978 14.493C130.884 16.082 130.791 17.6709 130.509 19.0729C128.542 27.9522 128.917 17.484 129.854 12.8106C123.951 27.0176 127.23 17.1101 128.074 11.7825C126.293 13.9322 121.328 13.8387 123.202 12.4367C124.139 11.7825 125.075 11.0347 126.012 10.3805C117.112 10.9413 108.68 11.4086 100.81 14.2126C87.9744 20.0076 65.0205 21.503 47.5006 19.4468C47.3132 19.5402 47.2195 19.7272 47.0321 19.8206C46.3763 20.3814 45.7205 20.8488 45.0647 21.4096C44.2215 22.0638 43.3783 22.1573 42.535 22.4377C41.6918 22.7181 44.2215 20.101 45.4394 18.7925C44.971 18.699 44.5962 18.5121 44.1278 18.4186L41.7855 18.6056C41.036 18.6056 41.2234 18.1382 41.7855 17.5774C37.0074 15.895 32.2292 13.7453 27.451 11.1282C29.4185 17.484 27.3574 16.3624 24.6404 9.53927C24.3593 9.35234 24.0782 9.16541 23.7972 9.07194C24.3593 14.7734 24.3593 24.0266 21.6423 7.483L21.3612 7.29607C21.3612 7.38954 21.3612 7.483 21.3612 7.66994C21.1739 9.81967 21.0802 12.0629 20.7054 13.9322C18.1758 25.5221 18.4569 12.9041 19.6748 6.26793L19.4874 6.17447C12.086 23.9332 15.9272 12.0629 17.2389 4.679L16.9578 4.49206C14.2408 6.9222 8.24471 6.73527 10.6806 4.86593L14.0535 2.43579C12.9292 1.68806 11.8986 0.846856 10.7743 0.0991211Z" fill="#64A21E"/>
<path fill-rule="evenodd" clip-rule="evenodd" d="M137.442 2.52865C139.035 1.59398 140.628 0.752777 142.127 0.00504179H130.791C130.791 0.191976 130.884 0.378909 130.884 0.565843C130.79 0.378909 130.697 0.191976 130.603 0.00504179H129.104C129.198 0.472376 129.291 0.846244 129.385 1.22011C127.886 -0.368826 123.857 -0.275359 125.357 0.752777C126.481 1.50051 127.605 2.24825 128.823 2.99598L128.729 3.08945C127.792 3.18292 123.857 3.65025 124.701 4.02412C125.45 4.39798 126.2 4.77185 127.043 4.86532C124.232 7.76279 121.328 10.8472 117.58 14.0251C107.93 22.1567 97.9992 30.5687 87.2249 35.6159C87.3186 35.429 87.506 35.1486 87.5997 34.9617C87.787 34.6813 87.9744 34.3074 88.0681 34.027C89.2861 31.5968 85.4448 35.429 84.0395 37.0179L83.7584 37.1114C88.0681 28.1386 85.4448 28.8863 82.8215 36.0833C83.571 34.1204 84.0395 22.811 81.7909 35.1486C81.6972 35.0551 81.6972 34.8682 81.6972 34.6812C81.6035 33.4662 81.5098 32.2511 81.3225 31.1295C79.6361 24.3064 79.9171 32.3446 80.7603 35.8963C75.6074 24.9607 78.4181 32.5315 79.2613 36.6441C77.6686 34.9617 73.3589 35.0551 74.9516 36.1767C76.1695 37.0179 77.3875 37.7657 78.6992 38.6069C77.9496 38.7003 73.3589 39.2611 74.2958 39.635L74.4831 39.7285C69.0491 40.6631 63.4278 40.4762 57.5253 38.7938C57.8064 38.5134 56.9632 38.1395 53.7778 37.5787L53.5904 37.3918C53.6841 37.2983 53.7778 37.2983 53.8714 37.2983C54.7147 37.1114 55.6515 36.9245 56.3074 36.5506C61.0855 33.9335 55.2768 34.9616 52.8409 36.2702C60.2423 29.2602 54.9957 33.2792 52.185 34.4943C53.2156 32.5315 52.8409 27.3908 52.185 29.3536C51.7166 30.8491 51.2481 32.438 50.7797 33.9335C50.686 33.0923 49.8428 27.6712 49.7491 28.8863C49.5617 29.9144 49.2807 30.8491 49.3744 31.9707C49.6554 36.9245 42.4413 31.223 33.8219 22.811C34.2903 22.9044 34.384 22.811 34.103 22.5306C32.9787 21.0351 32.1355 19.6331 30.6365 18.6049C29.5122 17.7637 28.2942 17.016 27.1699 16.1748C26.9826 15.9879 26.7952 15.8944 26.6078 15.7075C20.7054 10.006 14.9903 4.11758 10.6806 0.00504179H0C5.24661 4.30452 8.61943 8.69746 15.3651 14.1185C14.5219 14.3989 13.585 14.7728 12.7418 15.1467C11.9923 15.4271 11.4301 15.8944 10.6806 16.3617C10.2122 16.6421 9.83739 16.9225 9.36895 17.2964C5.62137 20.1004 16.4893 17.2029 18.3631 16.4552H18.4568C5.80875 26.1758 10.2122 27.7647 18.7379 19.3527C16.4893 21.5959 8.71312 38.5134 19.6748 21.8763C19.7685 22.0632 19.6748 22.4371 19.5811 22.7175C19.019 24.6803 18.2694 26.6431 18.0821 28.5124C16.4893 40.7566 20.9864 28.0451 21.8296 21.6894C23.0476 43.7475 23.3287 29.2602 24.6403 22.1567H24.734C26.0457 25.8019 31.2923 29.5406 31.2923 28.0451C37.1947 33.1858 43.1908 37.5787 49.8428 40.6631C49.8428 41.037 49.9365 41.4109 49.9365 41.7847C49.9365 42.0651 50.2176 44.6822 50.2176 44.6822C50.4049 44.6822 50.4049 44.4953 50.4049 44.3083C50.3112 43.1867 50.4049 42.1586 50.3112 41.037C50.8734 42.439 52.8409 47.3927 51.7166 42.9063C51.6229 42.5325 51.1545 41.6913 51.4355 41.5043C51.7166 41.6913 51.904 41.9717 52.0913 42.1586C52.4661 42.6259 52.8409 42.9998 53.2156 43.4671C53.4967 43.841 53.8714 44.0279 54.2462 44.3083C54.4336 44.4953 54.7147 44.6822 54.9957 44.7757C56.2137 45.6169 55.2768 43.9345 54.0588 42.3455C73.8273 49.0751 90.0356 39.8219 105.869 27.2974C105.963 27.3908 106.056 27.2974 106.056 27.2039C106.15 27.1104 106.244 27.017 106.244 26.9235L106.993 26.3627C106.712 27.5778 106.15 29.5406 107.087 27.3908C107.181 27.2039 107.274 26.6431 107.462 26.6431C107.556 26.83 107.462 27.1104 107.462 27.2974C107.462 27.6712 107.462 28.0451 107.462 28.419C107.462 28.6994 107.556 28.9798 107.649 29.3536C107.649 29.5406 107.743 29.7275 107.743 29.9144C108.118 31.6903 108.305 26.6431 108.211 26.1758C109.617 32.0642 110.273 30.3818 108.961 26.3627C109.336 27.3908 112.802 31.7838 109.617 26.1758C109.71 26.1758 109.71 26.2692 109.804 26.2692C110.179 26.6431 110.647 27.1104 111.116 27.2974C113.926 28.8863 111.209 26.0823 109.804 25.2411C115.144 26.4562 111.678 25.2411 110.085 24.1195C110.928 23.9326 112.146 22.4371 112.053 22.0632C114.957 19.6331 117.768 17.2029 120.672 14.7728C125.075 11.0341 129.385 7.76279 133.695 4.86532C134.163 4.86532 134.632 4.86532 135.1 4.86532C135.288 4.86532 137.442 4.77185 137.442 4.77185C137.442 4.58492 137.255 4.49145 137.161 4.49145C136.318 4.49145 135.475 4.39798 134.725 4.30452C134.913 4.11758 135.194 4.02412 135.381 3.83718C136.131 3.46332 137.161 2.90251 137.442 2.52865Z" fill="#F0F835"/>
</svg>

<svg width="234" height="45" fill="none" xmlns="http://www.w3.org/2000/svg"><path fill-rule="evenodd" clip-rule="evenodd" d="M24.64 3.65c.281.188.563.281.75.468-.656-.841-1.124-1.402-1.312-1.589.281.374.375.748.562 1.122ZM10.774.1h17.989c2.06 1.308 3.466 2.43-.469 1.214-.468-.187-1.593-1.121-1.967-.56.28.654.656 1.028 1.03 1.495.656.841 1.218 1.682 1.874 2.523.469.655.75 1.309 1.124 2.057 4.404 2.336 8.713 4.206 13.023 5.795-1.967-2.617-3.185-4.113 3.186 1.028-2.155-2.898-5.434-10.655-1.406-5.14.656.84 1.125 2.055 1.687 3.177.093.187.187.374.28.374-2.81-13.74 1.125-2.15 1.219.187-.469-9.066 1.499-11.684 1.124.934.094-.84 2.717-10.655 2.623-6.823 0 .468 0 .842-.093 1.309 0 .748-.094 1.308-.188 1.963-.187.748-.28 1.495-.468 2.243-.094.374-.281.841-.281 1.309.28.186.75-.935.937-1.216 2.998-3.925 0 1.402-.75 2.991.843-.56 1.687-1.121 2.436-1.776.094-.093.281-.186.375.094 0 0-1.968 1.776-2.155 1.87 1.124.28 2.342.56 3.466.747 11.43 2.15 22.767 1.495 33.916-1.87l-1.124-.84c-1.125-.935 1.686-.935 2.998.186l.187-.093c-.374-3.365-2.342-9.253 1.406-.187-.656-2.99-.844-9.814.374-4.02.188.936.281 1.964.281 2.992 0 .187 0 .28.094.374 1.5-9.347 1.312-2.71.937 0h.094c1.686-4.674 3.091-5.421 1.311-.468.656-.28 1.406-.56 2.062-.84.28-.188.468-.281.468-.188.187-.093.468-.187.656-.28l.187-.094c13.304-4.673 27.826-6.262 43.659-4.953 5.903.467 11.993 1.028 18.27 1.776-.75-.935 2.811-.935 4.31.56h.187c-.843-4.673-3.56-12.898 1.593-.654-.469-1.963-.75-5.328-.656-7.103h.843c.094.467.281 1.028.375 1.682.281 1.215.281 2.617.375 4.02 0 .186 0 .466.093.56.656-3.832 1.031-5.608 1.312-6.169h.281c.187 1.028-.094 5.982-.562 7.29 2.623-8.131 5.247-8.972.843 1.309h.094c1.218-1.589 5.527-6.543 4.31-3.645-.188.374-.282.748-.469 1.028-.281.56-.468 1.028-.843 1.495-.375.468-.656.935-1.031 1.402 7.214 1.402 14.616 3.365 22.205 6.356 8.525 3.365 15.458 6.169 22.017 2.337 5.621-3.272 9.462-9.16 13.678-17.572h3.279c-7.307 15.89-11.617 24.208-26.045 25.516h-.094c-.562 0-1.124.094-1.686.187.749.468 3.373 1.963 1.03 1.215-.187-.093-.656-.373-.749-.186.093.28.281.373.375.56.281.28.468.655.749.935.187.28.281.56.468.935.094.187.188.374.282.654.843 1.963-2.53-2.056-2.717-2.43 2.81 6.45 1.218 5.982-.375 1.028.468 1.309.749 8.973-.562.654-.094.094-.094.187-.094.28-.094.842-.094 1.683-.281 2.43-1.031 4.674-.843-.84-.375-3.27-3.092 7.477-1.405 2.243-.937-.561-.937 1.121-3.56 1.121-2.529.373l2.248-1.682c-.468-.093-3.185-.467-2.623-.654.562-.28.937-.561 1.593-.561h.187c-2.904-.374-5.902-1.122-8.994-2.337-12.742-6.542-35.977-11.496-49.656-12.711-2.529-.187-5.059-.374-7.495-.374l.281.28c.469.561.937 1.216 1.312 1.87.375.56.656 1.121.937 1.776.187.373.375.84.562 1.215 1.593 3.738-4.778-3.926-5.247-4.674 5.341 12.245 2.249 11.403-.749 1.963.843 2.524 1.405 17.198-1.124 1.215-.094.094-.094.374-.094.561-.094 1.589-.187 3.178-.469 4.58-1.967 8.88-1.592-1.589-.655-6.262-5.903 14.207-2.624 4.3-1.78-1.028-1.781 2.15-6.746 2.056-4.872.654.937-.654 1.873-1.402 2.81-2.056-8.9.56-17.332 1.028-25.202 3.832-12.836 5.795-35.79 7.29-53.31 5.234-.187.093-.28.28-.468.374-.656.56-1.311 1.028-1.967 1.589-.843.654-1.687.747-2.53 1.028-.843.28 1.687-2.337 2.904-3.645-.468-.094-.843-.28-1.311-.374l-2.343.187c-.749 0-.562-.468 0-1.029-4.778-1.682-9.556-3.832-14.334-6.449 1.968 6.356-.094 5.234-2.81-1.589-.282-.187-.563-.374-.844-.467.562 5.701.562 14.955-2.155-1.589l-.28-.187v.374c-.188 2.15-.282 4.393-.657 6.262-2.53 11.59-2.248-1.028-1.03-7.664l-.188-.094c-7.401 17.76-3.56 5.889-2.248-1.495l-.281-.187c-2.717 2.43-8.713 2.243-6.277.374l3.373-2.43c-1.125-.748-2.155-1.59-3.28-2.337Z" fill="#64A21E"/><path fill-rule="evenodd" clip-rule="evenodd" d="M137.442 2.529a78.638 78.638 0 0 1 4.685-2.524h-11.336c0 .187.093.374.093.56l-.281-.56h-1.499c.094.467.187.841.281 1.215-1.499-1.589-5.528-1.495-4.028-.467 1.124.748 2.248 1.495 3.466 2.243l-.094.093c-.937.094-4.872.561-4.028.935.749.374 1.499.748 2.342.841-2.811 2.898-5.715 5.982-9.463 9.16-9.65 8.132-19.58 16.544-30.355 21.59.094-.186.281-.466.375-.653.187-.28.374-.655.468-.935 1.218-2.43-2.623 1.402-4.028 2.99l-.282.094c4.31-8.972 1.687-8.225-.936-1.028.749-1.963 1.218-13.272-1.031-.934-.094-.094-.094-.28-.094-.468-.094-1.215-.187-2.43-.374-3.551-1.687-6.824-1.406 1.215-.563 4.766-5.153-10.935-2.342-3.364-1.499.748-1.592-1.682-5.902-1.589-4.31-.467 1.219.84 2.437 1.589 3.748 2.43-.75.093-5.34.654-4.403 1.028l.187.093c-5.434.935-11.055.748-16.958-.934.281-.28-.562-.654-3.747-1.215l-.188-.187c.094-.094.188-.094.281-.094.844-.187 1.78-.373 2.436-.747 4.779-2.617-1.03-1.59-3.466-.28 7.401-7.01 2.155-2.992-.656-1.777 1.03-1.962.656-7.103 0-5.14-.468 1.495-.937 3.084-1.405 4.58-.094-.842-.937-6.263-1.03-5.048-.188 1.028-.47 1.963-.376 3.085.281 4.954-6.933-.748-15.552-9.16.468.093.562 0 .281-.28-1.124-1.496-1.968-2.898-3.466-3.926-1.125-.841-2.343-1.589-3.467-2.43-.187-.187-.375-.28-.562-.468C20.705 10.006 14.99 4.117 10.68.005H0c5.247 4.3 8.62 8.692 15.365 14.113-.843.28-1.78.655-2.623 1.029-.75.28-1.312.747-2.061 1.215-.469.28-.844.56-1.312.934-3.748 2.804 7.12-.093 8.994-.84h.094c-12.648 9.72-8.245 11.309.28 2.897-2.248 2.243-10.024 19.16.938 2.523.093.187 0 .561-.094.841-.562 1.963-1.312 3.926-1.499 5.795-1.593 12.245 2.904-.467 3.748-6.823 1.218 22.059 1.499 7.571 2.81.468h.094c1.312 3.645 6.558 7.384 6.558 5.888 5.903 5.14 11.899 9.534 18.55 12.618 0 .374.095.748.095 1.122 0 .28.28 2.897.28 2.897.188 0 .188-.187.188-.374-.094-1.121 0-2.15-.094-3.271.562 1.402 2.53 6.356 1.406 1.87-.094-.374-.563-1.216-.282-1.403.282.187.469.468.656.655.375.467.75.84 1.125 1.308.28.374.655.56 1.03.841.188.187.469.374.75.468 1.218.84.28-.842-.937-2.43 19.768 6.73 35.977-2.524 51.81-15.049.094.094.187 0 .187-.093.094-.094.188-.187.188-.28l.749-.561c-.281 1.215-.843 3.178.094 1.028.094-.187.187-.748.375-.748.094.187 0 .467 0 .654v1.122c0 .28.094.56.187.935 0 .187.094.373.094.56.375 1.776.562-3.27.468-3.738 1.406 5.888 2.062 4.206.75.187.375 1.028 3.841 5.42.656-.187.093 0 .093.093.187.093.375.374.843.841 1.312 1.028 2.81 1.59.093-1.215-1.312-2.056 5.34 1.215 1.874 0 .281-1.122.843-.186 2.061-1.682 1.968-2.056 2.904-2.43 5.715-4.86 8.619-7.29 4.403-3.739 8.713-7.01 13.023-9.908h1.405c.188 0 2.342-.093 2.342-.093 0-.187-.187-.28-.281-.28-.843 0-1.686-.094-2.436-.187.188-.187.469-.28.656-.468.75-.374 1.78-.934 2.061-1.308Z" fill="#F0F835"/></svg>
